X: 56
T: No_4_Song_of_Nu'šina.krn
N: Derived from No_4_Song_of_Nu'šina.krn
%%abc-version 2.0
%%abcx-abcm2ps-target-version 5.9.1 (29 Sep 2008)
%%abc-creator hum2abc beta
%%abcx-conversion-date 2019/03/15 08:36:49
%%humdrum-veritas 744948491
%%humdrum-veritas-data 1945529009
%%linebreak <none>
%%barnumbers 0
L: 1/8
M: 3/4
K: D clef=bass
[K:clef=bass][M:3/4]DD A,A,D2 | 
DD DD DD | 
DD A,DF,2 ||  
[M:2/4]D,D, D,D, | 
D,D, D,!fermata!D, | 
[M:3/4]F,F, D,D,F,2 [I:setbarnb 7]| 
F,F, F,F, F,F, | 
F,F, D,D,D,2 | 
D,D, D,D,D,2 | 
F,F, D,D,F,2 | 
F,F, F,F, F,F, | 
F,F, D,D,D,2 | 
D,D, D,D,D,2 | 
E,E, D,D,E,2 | 
E,E, E,E, E,E, | 
E,D, D,D,D,2 | 
D,D, D,D,D,2 | 
E,E, D,D,D,2 | 
D,D, D,D, D,D, | 
D,D, C,C,D,2 | 
D,D, D,D,D,2 | 
D,D, C,C,D,2 | 
D,D, D,D,D,2 | 
[M:2/4]D,4 :|]  



